X: 35728
T: Saint Ruth's Bush
R: reel
M: 4/4
K: Adorian
|:gf|eAAB cBcA|GEED EDEG|AGAB cBcd|eaaf ge df|
eAAB cBcA|GEED EDEG|AGAB cdeg|dBGB A2:|
|:Bd|eaag abag|eaag bgag|eggf g2fg|eg dg eg Bd|
eaag abag|eaag bgag|edef gage|dBGB A2:|

